X: 21799
T: King's, The
R: reel
M: 4/4
K: Amixolydian
|:B,|A,2 EA, FA,EA,|A,2 EA, CA,A,B,|A,2 EA, FA,EF|1 G2 DC B,G,G,:|2 G2 DC B,G,G,||
d|(3cBA eA aeed|(3cBA eA cAAB|(3cBA eA agef|gedc BGGd|
(3cBA eA aeed|(3cBA eA cAAB|=c2 dc B2 d=c|Bgd=c BGGB|
|:A,2 EA, FA,EA,|A,2 EA, CA,A,B,|A,2 EA, FA,EF|1 G2 DC B,G,G,B,:|2 G2 DC B,G,G,d||
cA (3AAA eaed|cAeA cAAB|cA (3AAA agef|gedg BGGB|
cA (3AAA eaed|cAeA cAAc|dfed c2 a=c|Bgd=c BGGB,||

